svg/color/aws.svg

<?xml version="1.0" encoding="UTF-8" ?>
<!DOCTYPE svg PUBLIC "-//W3C//DTD SVG 1.1//EN" "http://www.w3.org/Graphics/SVG/1.1/DTD/svg11.dtd">
<svg width="250pt" height="250pt" viewBox="0 0 250 250" version="1.1" xmlns="http://www.w3.org/2000/svg">
<g id="#ffffffff">
<path fill="#ffffff" opacity="1.00" d=" M 0.00 0.00 L 116.79 0.00 C 95.17 1.86 73.85 8.64 55.80 20.83 C 30.12 37.78 11.15 64.54 3.73 94.41 C 1.88 101.39 1.09 108.59 0.00 115.71 L 0.00 0.00 Z" />
<path fill="#ffffff" opacity="1.00" d=" M 133.32 0.00 L 250.00 0.00 L 250.00 120.77 C 249.66 113.60 248.74 106.47 247.32 99.44 C 240.92 68.08 221.83 39.60 195.34 21.66 C 177.08 9.02 155.37 1.96 133.32 0.00 Z" />
<path fill="#ffffff" opacity="1.00" d=" M 108.48 12.71 C 133.66 8.93 160.06 14.05 182.03 26.92 C 204.56 39.97 222.31 61.04 231.30 85.47 C 240.06 108.90 240.76 135.23 233.13 159.06 C 224.76 185.99 205.86 209.42 181.37 223.38 C 160.00 235.68 134.53 240.79 110.08 237.43 C 84.63 234.14 60.46 221.85 42.84 203.20 C 25.92 185.59 15.04 162.33 12.28 138.08 C 8.83 109.83 16.71 80.43 33.68 57.59 C 51.34 33.49 78.88 16.92 108.48 12.71 M 109.44 17.66 C 81.95 21.53 56.30 36.51 39.34 58.47 C 24.43 77.57 16.23 101.79 16.55 126.02 C 16.72 153.60 27.97 180.97 47.37 200.61 C 64.37 218.24 87.60 229.70 111.92 232.58 C 136.91 235.77 162.91 229.61 184.00 215.87 C 204.78 202.43 220.67 181.65 228.17 158.06 C 235.74 134.75 235.00 108.88 226.12 86.03 C 216.98 62.08 199.01 41.66 176.41 29.56 C 156.13 18.57 132.27 14.27 109.44 17.66 Z" />
<path fill="#ffffff" opacity="1.00" d=" M 117.43 81.72 C 117.43 75.72 117.37 69.73 117.47 63.74 C 132.70 62.69 148.22 64.45 162.60 69.66 C 162.63 75.54 162.62 81.41 162.60 87.29 C 148.12 82.45 132.69 79.79 117.43 81.72 Z" />
<path fill="#ffffff" opacity="1.00" d=" M 78.94 88.81 C 81.99 78.95 90.33 71.61 99.72 67.84 C 99.99 77.90 99.56 87.96 99.93 98.01 C 100.49 103.88 106.38 106.89 111.42 108.38 C 125.73 112.48 141.19 112.62 154.74 119.30 C 161.75 122.65 167.78 128.45 170.41 135.87 C 173.11 143.43 173.38 151.87 171.35 159.63 C 169.35 167.10 164.43 173.71 157.91 177.86 C 148.79 183.82 137.74 185.81 127.03 186.39 C 111.96 186.91 96.67 185.19 82.37 180.26 C 82.32 174.37 82.33 168.48 82.36 162.59 C 97.49 167.05 113.35 169.76 129.15 168.50 C 135.39 167.75 142.16 166.34 146.70 161.63 C 150.26 158.15 150.62 152.54 149.15 148.02 C 147.04 142.76 141.42 140.26 136.29 138.88 C 123.17 135.51 109.22 135.61 96.57 130.42 C 89.61 127.67 83.29 122.66 80.27 115.66 C 76.66 107.28 76.30 97.51 78.94 88.81 Z" />
<path fill="#ffffff" opacity="1.00" d=" M 230.65 191.67 C 242.08 173.93 248.21 153.22 250.00 132.28 L 250.00 250.00 L 129.32 250.00 C 140.50 249.44 151.64 247.61 162.33 244.26 C 190.38 235.56 215.03 216.53 230.65 191.67 Z" />
<path fill="#ffffff" opacity="1.00" d=" M 0.00 132.57 C 1.17 145.75 3.81 158.86 8.79 171.15 C 16.19 189.76 28.13 206.57 43.33 219.60 C 64.59 238.16 92.32 248.83 120.47 250.00 L 0.00 250.00 L 0.00 132.57 Z" />
</g>
<g id="#999999ff">
<path fill="#999999" opacity="1.00" d=" M 116.79 0.00 L 133.32 0.00 C 155.37 1.96 177.08 9.02 195.34 21.66 C 221.83 39.60 240.92 68.08 247.32 99.44 C 248.74 106.47 249.66 113.60 250.00 120.77 L 250.00 132.28 C 248.21 153.22 242.08 173.93 230.65 191.67 C 215.03 216.53 190.38 235.56 162.33 244.26 C 151.64 247.61 140.50 249.44 129.32 250.00 L 120.47 250.00 C 92.32 248.83 64.59 238.16 43.33 219.60 C 28.13 206.57 16.19 189.76 8.79 171.15 C 3.81 158.86 1.17 145.75 0.00 132.57 L 0.00 115.71 C 1.09 108.59 1.88 101.39 3.73 94.41 C 11.15 64.54 30.12 37.78 55.80 20.83 C 73.85 8.64 95.17 1.86 116.79 0.00 M 108.48 12.71 C 78.88 16.92 51.34 33.49 33.68 57.59 C 16.71 80.43 8.83 109.83 12.28 138.08 C 15.04 162.33 25.92 185.59 42.84 203.20 C 60.46 221.85 84.63 234.14 110.08 237.43 C 134.53 240.79 160.00 235.68 181.37 223.38 C 205.86 209.42 224.76 185.99 233.13 159.06 C 240.76 135.23 240.06 108.90 231.30 85.47 C 222.31 61.04 204.56 39.97 182.03 26.92 C 160.06 14.05 133.66 8.93 108.48 12.71 Z" />
<path fill="#999999" opacity="1.00" d=" M 109.44 17.66 C 132.27 14.27 156.13 18.57 176.41 29.56 C 199.01 41.66 216.98 62.08 226.12 86.03 C 235.00 108.88 235.74 134.75 228.17 158.06 C 220.67 181.65 204.78 202.43 184.00 215.87 C 162.91 229.61 136.91 235.77 111.92 232.58 C 87.60 229.70 64.37 218.24 47.37 200.61 C 27.97 180.97 16.72 153.60 16.55 126.02 C 16.23 101.79 24.43 77.57 39.34 58.47 C 56.30 36.51 81.95 21.53 109.44 17.66 M 117.43 81.72 C 132.69 79.79 148.12 82.45 162.60 87.29 C 162.62 81.41 162.63 75.54 162.60 69.66 C 148.22 64.45 132.70 62.69 117.47 63.74 C 117.37 69.73 117.43 75.72 117.43 81.72 M 78.94 88.81 C 76.30 97.51 76.66 107.28 80.27 115.66 C 83.29 122.66 89.61 127.67 96.57 130.42 C 109.22 135.61 123.17 135.51 136.29 138.88 C 141.42 140.26 147.04 142.76 149.15 148.02 C 150.62 152.54 150.26 158.15 146.70 161.63 C 142.16 166.34 135.39 167.75 129.15 168.50 C 113.35 169.76 97.49 167.05 82.36 162.59 C 82.33 168.48 82.32 174.37 82.37 180.26 C 96.67 185.19 111.96 186.91 127.03 186.39 C 137.74 185.81 148.79 183.82 157.91 177.86 C 164.43 173.71 169.35 167.10 171.35 159.63 C 173.38 151.87 173.11 143.43 170.41 135.87 C 167.78 128.45 161.75 122.65 154.74 119.30 C 141.19 112.62 125.73 112.48 111.42 108.38 C 106.38 106.89 100.49 103.88 99.93 98.01 C 99.56 87.96 99.99 77.90 99.72 67.84 C 90.33 71.61 81.99 78.95 78.94 88.81 Z" />
</g>
</svg>

<?xml version="1.0" encoding="utf-8"?>
<!-- Generator: Adobe Illustrator 26.0.3, SVG Export Plug-In . SVG Version: 6.00 Build 0)  -->
<svg version="1.1" id="Layer_1" xmlns="http://www.w3.org/2000/svg" xmlns:xlink="http://www.w3.org/1999/xlink" x="0px" y="0px"
	 viewBox="0 0 250 250" style="enable-background:new 0 0 250 250;" xml:space="preserve">
<style type="text/css">
	.st0{fill:#FFFFFF;}
	.st1{fill:#999999;}
</style>
<g id="_x23_ffffffff">
	<path class="st0" d="M108.5,12.7c25.2-3.8,51.6,1.3,73.5,14.2C204.6,40,222.3,61,231.3,85.5c8.8,23.4,9.5,49.8,1.8,73.6
		c-8.4,26.9-27.3,50.4-51.8,64.3c-21.4,12.3-46.8,17.4-71.3,14c-25.5-3.3-49.6-15.6-67.2-34.2c-16.9-17.6-27.8-40.9-30.6-65.1
		c-3.4-28.2,4.4-57.7,21.4-80.5C51.3,33.5,78.9,16.9,108.5,12.7 M109.4,17.7c-27.5,3.9-53.1,18.8-70.1,40.8
		C24.4,77.6,16.2,101.8,16.5,126c0.2,27.6,11.4,55,30.8,74.6c17,17.6,40.2,29.1,64.6,32c25,3.2,51-3,72.1-16.7
		c20.8-13.4,36.7-34.2,44.2-57.8c7.6-23.3,6.8-49.2-2.1-72C217,62.1,199,41.7,176.4,29.6C156.1,18.6,132.3,14.3,109.4,17.7z"/>
	<path class="st0" d="M117.4,81.7c0-6-0.1-12,0-18c15.2-1.1,30.8,0.7,45.1,5.9c0,5.9,0,11.8,0,17.6
		C148.1,82.4,132.7,79.8,117.4,81.7z"/>
	<path class="st0" d="M78.9,88.8c3-9.9,11.4-17.2,20.8-21C100,77.9,99.6,88,99.9,98c0.6,5.9,6.4,8.9,11.5,10.4
		c14.3,4.1,29.8,4.2,43.3,10.9c7,3.3,13,9.1,15.7,16.6c2.7,7.6,3,16,0.9,23.8c-2,7.5-6.9,14.1-13.4,18.2c-9.1,6-20.2,7.9-30.9,8.5
		c-15.1,0.5-30.4-1.2-44.7-6.1c-0.1-5.9,0-11.8,0-17.7c15.1,4.5,31,7.2,46.8,5.9c6.2-0.8,13-2.2,17.6-6.9c3.6-3.5,3.9-9.1,2.4-13.6
		c-2.1-5.3-7.7-7.8-12.9-9.1c-13.1-3.4-27.1-3.3-39.7-8.5c-7-2.8-13.3-7.8-16.3-14.8C76.7,107.3,76.3,97.5,78.9,88.8z"/>
</g>
<g id="_x23_999999ff">
	<path class="st1" d="M116.8,0h16.5c22,2,43.8,9,62,21.7c26.5,17.9,45.6,46.4,52,77.8c1.4,7,2.3,14.2,2.7,21.3v11.5
		c-1.8,20.9-7.9,41.6-19.4,59.4c-15.6,24.9-40.3,43.9-68.3,52.6c-10.7,3.4-21.8,5.2-33,5.7h-8.9c-28.2-1.2-55.9-11.8-77.1-30.4
		c-15.2-13-27.1-29.8-34.5-48.5c-5-12.3-7.6-25.4-8.8-38.6v-16.9c1.1-7.1,1.9-14.3,3.7-21.3c7.4-29.9,26.4-56.6,52.1-73.6
		C73.8,8.6,95.2,1.9,116.8,0 M108.5,12.7c-29.6,4.2-57.1,20.8-74.8,44.9c-17,22.8-24.9,52.2-21.4,80.5c2.8,24.2,13.6,47.5,30.6,65.1
		c17.6,18.7,41.8,30.9,67.2,34.2c24.4,3.4,49.9-1.8,71.3-14c24.5-14,43.4-37.4,51.8-64.3c7.6-23.8,6.9-50.2-1.8-73.6
		C222.3,61,204.6,40,182,26.9C160.1,14.1,133.7,8.9,108.5,12.7z"/>
	<path class="st1" d="M109.4,17.7c22.8-3.4,46.7,0.9,67,11.9C199,41.7,217,62.1,226.1,86c8.9,22.8,9.6,48.7,2.1,72
		c-7.5,23.6-23.4,44.4-44.2,57.8c-21.1,13.7-47.1,19.9-72.1,16.7c-24.3-2.9-47.5-14.3-64.6-32C28,181,16.7,153.6,16.5,126
		c-0.3-24.2,7.9-48.4,22.8-67.5C56.3,36.5,81.9,21.5,109.4,17.7 M117.4,81.7c15.3-1.9,30.7,0.7,45.2,5.6c0-5.9,0-11.8,0-17.6
		c-14.4-5.2-29.9-7-45.1-5.9C117.4,69.7,117.4,75.7,117.4,81.7 M78.9,88.8c-2.6,8.7-2.3,18.5,1.3,26.9c3,7,9.3,12,16.3,14.8
		c12.7,5.2,26.6,5.1,39.7,8.5c5.1,1.4,10.8,3.9,12.9,9.1c1.5,4.5,1.1,10.1-2.4,13.6c-4.5,4.7-11.3,6.1-17.6,6.9
		c-15.8,1.3-31.7-1.4-46.8-5.9c0,5.9,0,11.8,0,17.7c14.3,4.9,29.6,6.7,44.7,6.1c10.7-0.6,21.8-2.6,30.9-8.5
		c6.5-4.1,11.4-10.8,13.4-18.2c2-7.8,1.8-16.2-0.9-23.8c-2.6-7.4-8.7-13.2-15.7-16.6c-13.6-6.7-29-6.8-43.3-10.9
		c-5-1.5-10.9-4.5-11.5-10.4C99.6,88,100,77.9,99.7,67.8C90.3,71.6,82,78.9,78.9,88.8z"/>
</g>
</svg>
